symbols/web/chevron_right/materialsymbolsrounded/chevron_right_40px.svg

<svg xmlns="http://www.w3.org/2000/svg" height="40" width="40"><path d="M14.667 29q-.375-.417-.396-1-.021-.583.396-.958l7.041-7.084-7.083-7.083q-.375-.375-.354-.979.021-.604.396-.979.416-.417.979-.417.562 0 .979.417L24.708 19q.209.208.292.458.083.25.083.5 0 .292-.083.521-.083.229-.292.479L16.625 29q-.375.417-.958.396-.584-.021-1-.396Z"/></svg>

<svg xmlns="http://www.w3.org/2000/svg" height="40" width="40"><path d="M14.667 29Q14.292 28.583 14.271 28Q14.25 27.417 14.667 27.042L21.708 19.958L14.625 12.875Q14.25 12.5 14.271 11.896Q14.292 11.292 14.667 10.917Q15.083 10.5 15.646 10.5Q16.208 10.5 16.625 10.917L24.708 19Q24.917 19.208 25 19.458Q25.083 19.708 25.083 19.958Q25.083 20.25 25 20.479Q24.917 20.708 24.708 20.958L16.625 29Q16.25 29.417 15.667 29.396Q15.083 29.375 14.667 29Z"/></svg>
